X: 8123
T: Controversial Culloden News Article, The
R: strathspey
M: 4/4
K: Dminor
|:d>e|f<AA>c =B>A c<e|f<AA>a ^g>af>=g|e<AA>c d>e f<g|f<e d<^c d2:|
|:G>A|B<DD>F G>A B<c|A<DD>d ^c>dB>=c|A<DD>F G>A B<c|B>A G<^F G2:|
|:G>A|F>E D<A, A,>G^F>G|G<G,G,>F E>FG>E|F<A,A,>=B, C>D E<G|F>E D<^C D2:|

